// mix to values with a mask.
// pbIdMask.osl, by Harut Harutyunyan
// Modified: 2019-03-18
// gumroad.com/pixelbucket

shader hShaderName(
    float A = 0.1,
    float B = 0.5,
    float Mask = 0,
    output float ResultF = 0,
)
{
    float safe_mask = clamp(Mask, 0, 1);
    ResultF = mix(A, B, safe_mask);
}
