// position mask
// hPMask.osl, by Harut Harutyunyan
// Modified: 2019-03-18
// gumroad.com/pixelbucket

shader hPMask(
  point Position1 = 0,
  point Scale1 = 1,

  float Gamma = 1 [[ float min = 0, float max = 1 ]],
  point Manifold = transform("world", P),
  output color Result = 0,
)
{
    // point PP = (Manifold-Position1)/(Scale1+0.0001);
    Result = distance(Manifold/Scale1, Position1);
    // Result = 0;
    Result = clamp(Result, 0, 1);
}