// mix to colors with a mask.
// pbIdMask.osl, by Harut Harutyunyan
// Modified: 2018-02-08
// gumroad.com/pixelbucket
// https://github.com/harut-harutyunyan/pbShadingNodes

shader hShaderName(
    color A = color(0.5, 0.2, 0.4),
    color B = color(0, 0.25, 1),
    float Mask = 0,
    output color Result = 0,
    output float ResultF = 0,
)
{
    float safe_mask = clamp(Mask, 0, 1);
    ResultF = safe_mask;
    Result = mix(A, B, safe_mask);
}
